X:277
T: Da Jinan
N: C1774
O: China, Shandong Zibo
S: III, 354]
R: Xiaodiao, Wugeng diao]
M: 2/4
L: 1/16
K: Eb
B2GBG2F2 | GFE4F2 | G2B2c2G2 | B8
e4B2c2 | e4c2G2 | B2G2B2c2 | B8
B2C2E2F2 | G4B4 | c2B2G2F2 | E8

